svg/editor/Heading_3_line.svg

<?xml version="1.0" encoding="UTF-8"?>
<svg width="24px" height="24px" viewBox="0 0 24 24" version="1.1" xmlns="http://www.w3.org/2000/svg" xmlns:xlink="http://www.w3.org/1999/xlink">
    <title>Heading_3_line</title>
    <g id="页面-1" stroke="none" stroke-width="1" fill="none" fill-rule="evenodd">
        <g id="Editor" transform="translate(-528.000000, 0.000000)" fill-rule="nonzero">
            <g id="Heading_3_line" transform="translate(528.000000, 0.000000)">
                 <path d="M24,0 L24,24 L0,24 L0,0 L24,0 Z M12.5934901,23.257841 L12.5819402,23.2595131 L12.5108777,23.2950439 L12.4918791,23.2987469 L12.4918791,23.2987469 L12.4767152,23.2950439 L12.4056548,23.2595131 C12.3958229,23.2563662 12.3870493,23.2590235 12.3821421,23.2649074 L12.3780323,23.275831 L12.360941,23.7031097 L12.3658947,23.7234994 L12.3769048,23.7357139 L12.4804777,23.8096931 L12.4953491,23.8136134 L12.4953491,23.8136134 L12.5071152,23.8096931 L12.6106902,23.7357139 L12.6232938,23.7196733 L12.6232938,23.7196733 L12.6266527,23.7031097 L12.609561,23.275831 C12.6075724,23.2657013 12.6010112,23.2592993 12.5934901,23.257841 L12.5934901,23.257841 Z M12.8583906,23.1452862 L12.8445485,23.1473072 L12.6598443,23.2396597 L12.6498822,23.2499052 L12.6498822,23.2499052 L12.6471943,23.2611114 L12.6650943,23.6906389 L12.6699349,23.7034178 L12.6699349,23.7034178 L12.678386,23.7104931 L12.8793402,23.8032389 C12.8914285,23.8068999 12.9022333,23.8029875 12.9078286,23.7952264 L12.9118235,23.7811639 L12.8776777,23.1665331 C12.8752882,23.1545897 12.8674102,23.1470016 12.8583906,23.1452862 L12.8583906,23.1452862 Z M12.1430473,23.1473072 C12.1332178,23.1423925 12.1221763,23.1452606 12.1156365,23.1525954 L12.1099173,23.1665331 L12.0757714,23.7811639 C12.0751323,23.7926639 12.0828099,23.8018602 12.0926481,23.8045676 L12.108256,23.8032389 L12.3092106,23.7104931 L12.3186497,23.7024347 L12.3186497,23.7024347 L12.3225043,23.6906389 L12.340401,23.2611114 L12.337245,23.2485176 L12.337245,23.2485176 L12.3277531,23.2396597 L12.1430473,23.1473072 Z" id="MingCute" fill-rule="nonzero"></path>
                <path d="M13,3 C13.51285,3 13.9355092,3.38604429 13.9932725,3.88337975 L14,4 L14,20 C14,20.5523 13.5523,21 13,21 C12.48715,21 12.0644908,20.613973 12.0067275,20.1166239 L12,20 L12,13 L5,13 L5,20 C5,20.5523 4.55228,21 4,21 C3.48716857,21 3.06449347,20.613973 3.0067278,20.1166239 L3,20 L3,4 C3,3.44772 3.44772,3 4,3 C4.51283143,3 4.93550653,3.38604429 4.9932722,3.88337975 L5,4 L5,11 L12,11 L12,4 C12,3.44772 12.4477,3 13,3 Z M18.3714,12.5 C19.827,12.5 21,13.6854 21,15.1334 C21,15.7245 20.8,16.2932 20.4417,16.7501 C20.7999,17.2069 20.9998,17.7756 20.9998,18.3666 C20.9998,19.8146 19.8268,21 18.3712,21 C17.3194,21 16.332,20.6496 15.8873,19.6016 C15.646,19.033 15.6581,18.3518 16.3234,18.0694 C16.7955786,17.8691071 17.3354434,18.0594112 17.5828593,18.4946729 L17.6346,18.5994 C17.7727091,18.9247091 17.9134959,18.9858645 18.1764703,18.9973488 L18.3712,19 L18.3712,19 C18.7146,19 18.9998,18.7176 18.9998,18.3666 C18.9998,17.9941455 18.7150893,17.7892942 18.3855626,17.7551267 L18.2856,17.75 C17.7333,17.75 17.2856,17.3023 17.2856,16.75 C17.2856,16.23715 17.6717995,15.8144908 18.1690931,15.7567275 L18.2857,15.75 C18.6555,15.75 19,15.5431 19,15.1334 C19,14.7824 18.7148,14.5 18.3714,14.5 L18.1766709,14.5026512 C17.9429183,14.5128595 17.8057186,14.562314 17.6811746,14.8016529 L17.6349,14.9006 C17.4191,15.409 16.8321,15.6463 16.3237,15.4306 C15.6450684,15.1426421 15.6559116,14.6208958 15.7613429,14.2420961 L15.8105845,14.0896036 L15.8105845,14.0896036 L15.8875,13.8984 C16.3322,12.8504 17.3196,12.5 18.3714,12.5 Z" id="形状" fill="#09244B"></path>
            </g>
        </g>
    </g>
</svg>

<svg xmlns="http://www.w3.org/2000/svg" width="24" height="24"><g fill="none" fill-rule="nonzero"><path d="M24 0v24H0V0h24ZM12.593 23.258l-.011.002-.071.035-.02.004-.014-.004-.071-.035c-.01-.004-.019-.001-.024.005l-.004.01-.017.428.005.02.01.013.104.074.015.004.012-.004.104-.074.012-.016.004-.017-.017-.427c-.002-.01-.009-.017-.017-.018Zm.265-.113-.013.002-.185.093-.01.01-.003.011.018.43.005.012.008.007.201.093c.012.004.023 0 .029-.008l.004-.014-.034-.614c-.003-.012-.01-.02-.02-.022Zm-.715.002a.023.023 0 0 0-.027.006l-.006.014-.034.614c0 .012.007.02.017.024l.015-.002.201-.093.01-.008.004-.011.017-.43-.003-.012-.01-.01-.184-.092Z"/><path fill="#09244B" d="M13 3a1 1 0 0 1 .993.883L14 4v16a1 1 0 0 1-1.993.117L12 20v-7H5v7a1 1 0 0 1-1.993.117L3 20V4a1 1 0 0 1 1.993-.117L5 4v7h7V4a1 1 0 0 1 1-1Zm5.371 9.5a2.633 2.633 0 0 1 2.07 4.25c.359.457.559 1.026.559 1.617A2.633 2.633 0 0 1 18.37 21c-1.052 0-2.039-.35-2.484-1.398-.241-.569-.229-1.25.436-1.533a1 1 0 0 1 1.26.426l.052.104c.138.326.278.387.541.398l.195.003a.633.633 0 0 0 .629-.633c0-.373-.285-.578-.614-.612l-.1-.005a1 1 0 0 1-.117-1.993l.117-.007c.37 0 .714-.207.714-.617a.633.633 0 0 0-.629-.633l-.194.003c-.234.01-.371.06-.496.299l-.046.099a1 1 0 0 1-1.311.53c-.679-.288-.668-.81-.563-1.189l.05-.152.076-.192c.445-1.048 1.433-1.398 2.484-1.398Z"/></g></svg>
